X:1
T:Title
%%score { ( 1 4 ) | ( 2 3 ) }
L:1/8
Q:1/4=100
M:6/8
K:G
V:1 treble nm="Grand Piano"
V:4 treble 
V:2 bass 
V:3 bass 
V:1
 [EG][^DF][EG] [Ec][GB][=FA] | [EG][=FA][EG] .[CE]3 | [B,D][CE][D=F] [FA]2 [FB] | [^DA]3 .[EG]3 | %4
w: Haldor~Lillenas * * * * *||||
 [EG][^DF][EG] [Ec][GB][=FA] | [EG][=FA][EG] .E3 | DG[GB] [Gd]2 [DGB] | [CFA]3 .[B,DG]3 | .[Ec]6 | %9
w: |||||
 [=FB]6 | .[=FA]6 | [EG]6 | A^GA dcA | [EG][^DF][EG] .[Ec]3 |[M:3/8] [FA][FB][Fc] | [=Fd]2 [FA] | %16
w: |||||||
[M:3/4] [=Fd]6 | [Ec]4 z2 | [=FB]6 | [=FA]4 z2 | [EG]6 | A^G Ad cA | [EG][^DF] [EG] .[Ec]3 | %23
w: |||||||
[M:3/8] [FA][FB][Fc] | [=Fd] [Ge]2 |[M:3/4] [Ec]6 |] %26
w: |||
V:2
 [C,C][C,C][C,C] [C,C][C,C][C,C] | [C,C][C,C][C,C] .[C,G,]3 | %2
 [G,,G,][G,,G,][G,,G,] [B,,G,]2 [B,,G,] | [C,=F,]3 .[C,G,]3 | [C,C][C,C][C,C] [C,C][C,C][C,C] | %5
 [C,C][C,C][C,C] .[C,C]3 | [D,G,B,][D,B,D][D,D] [D,B,]2 D, | D,3 z2 =F | C,C,C, C,EE | %9
 G,G,G, .=F,3 | G,G,G, G,[K:treble]D=F | C,C,C, .C,3 | [=F,C=F][F,B,F][F,CF] [F,A,F][F,A,F][F,CF] | %13
 [C,C][C,C][C,C] .[C,C]3 |[M:3/8] [D,C][D,C][D,C] | [D,A,]2 [D,D] |[M:3/4] [G,B,]6 | %17
 [C,C]C, C,C, EE | G,G, G, .=F,3 | G,G, G,G,[K:treble] D=F | C,C, C, .C,3 | %21
 [=F,C=F][F,B,F] [F,CF][F,A,F] [F,A,F][F,CF] | [C,C][C,C] [C,C] .[C,C]3 |[M:3/8] [D,C][D,C][D,C] | %24
 [G,B,] [G,B,]2 |[M:3/4] [C,G,]6 |] %26
V:3
 x6 | x6 | x6 | x6 | x6 | x6 | x6 | z3 G,3 | x6 | x6 | x4[K:treble] x2 | x6 | x6 | x6 |[M:3/8] x3 | %15
 x3 |[M:3/4] x6 | x6 | x6 | x4[K:treble] x2 | x6 | x6 | x6 |[M:3/8] x3 | x3 |[M:3/4] x6 |] %26
V:4
 x6 | x6 | x6 | x6 | x6 | x6 | x6 | x6 | CCC CBA | DDD .D3 | B,B,B, B,=FA | CCC .C3 | x6 | x6 | %14
[M:3/8] x3 | x3 |[M:3/4] x6 | z C CC BA | DD D .D3 | B,B, B,B, =FA | CC C .C3 | x6 | x6 | %23
[M:3/8] x3 | x3 |[M:3/4] x6 |] %26

